src/lib/packages/icons/src/assets/filled/chat-dots.svg

<svg width="24" height="24" viewBox="0 0 24 24" fill="none" xmlns="http://www.w3.org/2000/svg">
<path d="M12.001 3C7.031 3 3.00197 7.02902 3.00197 11.999C3.00197 13.339 3.30205 14.619 3.83205 15.758C4.04205 16.198 4.04211 16.708 3.89211 17.178L3.05202 19.678C2.79202 20.458 3.54204 21.208 4.32204 20.948L6.82204 20.108C7.29204 19.958 7.80196 19.958 8.24196 20.168C9.38196 20.698 10.662 20.998 12.002 20.998C16.972 20.998 21.001 16.969 21.001 11.999C21 7.02902 16.971 3 12.001 3ZM8.00197 13C7.44997 13 6.99709 12.552 6.99709 12C6.99709 11.448 7.43996 11 7.99196 11H8.00197C8.55497 11 9.00197 11.448 9.00197 12C9.00197 12.552 8.55497 13 8.00197 13ZM12.002 13C11.45 13 10.9971 12.552 10.9971 12C10.9971 11.448 11.44 11 11.992 11H12.002C12.555 11 13.002 11.448 13.002 12C13.002 12.552 12.555 13 12.002 13ZM16.002 13C15.45 13 14.9971 12.552 14.9971 12C14.9971 11.448 15.44 11 15.992 11H16.002C16.555 11 17.002 11.448 17.002 12C17.002 12.552 16.555 13 16.002 13Z" fill="currentColor"/>
</svg>

<svg xmlns="http://www.w3.org/2000/svg" width="24" height="24" fill="none"><path fill="currentColor" d="M12.001 3a9 9 0 0 0-8.999 8.999c0 1.34.3 2.62.83 3.759.21.44.21.95.06 1.42l-.84 2.5c-.26.78.49 1.53 1.27 1.27l2.5-.84c.47-.15.98-.15 1.42.06 1.14.53 2.42.83 3.76.83A8.999 8.999 0 1 0 12.001 3ZM8.002 13a1.005 1.005 0 0 1-1.005-1c0-.552.443-1 .995-1h.01a1 1 0 1 1 0 2Zm4 0a1.005 1.005 0 0 1-1.005-1c0-.552.443-1 .995-1h.01a1 1 0 1 1 0 2Zm4 0a1.005 1.005 0 0 1-1.005-1c0-.552.443-1 .995-1h.01a1 1 0 1 1 0 2Z"/></svg>
